X: 1972
T: Yayla Yollarında Yürüyüp Gelir
C: Ahmet Yamacı
O: Turkey
F: http://compmusic.upf.edu/node/140
N: tahir--turku--ciftesofyan--yayla_yollarinda--
N: makam= tahir
N: form= turku
N: usul= ciftesofyan = 9/8
M: 9/8
L: 1/16
K: C _2/4B ^3/4f  
Q: 1/4=384
%%MIDI tuningsystem comma53
cd ed .d2 cc B | .A2A AA2G GG  | Bc dc .d2 cc B | 
w:  ARANAĞME  |   |   | 
A2A AA2A AA  | ee ee .d2 cc B | .A2A A.A2G GG  | 
w:   |   |   | 
Bc dc .d2 cc B | .A2A A.A2A AA  | .A2 ee .A2 AA A | 
w:   |   |   | 
.A2e e.A2A AA  | cd ed .d2 cc B | .A2A AA2G GG  | 
w:   |  ARANAĞME  |   | 
Bc dc .d2 cc B | A2A AA2A AA  | ee ee .d2 cc B | 
w:   |   |   | 
.A2A A.A2G GG  | Bc dc .d2 cc B | .A2A A.A2A AA  | 
w:   |   |   | 
.A2 ee .A2 AA A | .A2e e.A2A AA  | b2 c'2 c'2 c'c' b | \
w:   |   |  Yay la  yol la   | 
b2b2b2b c'a  | 
w:  rın da  yü rü  | 
a2 a2 a2 a3 | a2a2a2a2g  | g2 gf gf e3 | \
w:  yüp  ge lir   |   |  oy  ge *  lin   | 
e2e gd2c BA  | 
w:  oy  ge *  lin   | 
A2 A2 A2 A3 | A2A2A2A3  | f2 g2 a2 a3 | \
w:  oy  ge lin    |   |  Al lı  şal va  | 
a2g fg fe2d  | d2 d2 de c3 | 
w:  rı nı  *  sü *  rü  |  yüp  ge lir_  | 
c2c2c dB3  | B2 B2 Bc A3 | A2A2A2A3  | A2 A2 A2 A3 | \
w:  *  a man_  |  a man_  |  *  a man    |   | 
A2A2A2A AA  | 
w:  *  *  *  SAZ  | 
cd ed d2 cc B | A2A2A2G3  | Bc dc d2 cc B | \
w:  Ben  *  var *  mam  o  |  ra lı ya   |  o *  ra *  da  du  | 
A2A2A2A3  | 
w:  ra lı ya    | 
e2 e2 d2 cc B | A2A2A2G3  | Bc dc d2 c2 B | \
w:  Al lah  na sip   |  ey le sin   |  da *  vul *  lu  zur  | 
A2A2A2A3  | 
w:  na lı ya    | 
.g2 .f2 .g2 aa a | g gf fg2a aa  | .g2 .f2 .g2 aa a | \
w:  SAZ  |   |   | 
g gf fg2a aa  | 
w:   | 
.g2 =fe .d2 ee e | .d2c B.A2e ee  | .d2 .c2 .d2 ee e | \
w:   |   |   | 
d2c BA2A AA  | 
w:   | 
.e2 ee .d2 cc B | d2d d.A2G GG  | Bc dc .d2 cc B | 
w:   |   |   | 
.d2d d.A2A AA  | .e2 ee .d2 cc B | .d2d d.A2G GG  | 
w:   |   |   | 
Bc dc .d2 cc B | .d2d d.A2A AA  | |


